X:1
T:21. Att og fram
T:21. Att og fram
T:Symra
T:Chr. Haslerud
T:Ivar Aasen
C:Chr. Haslerud
Z:Ivar Aasen
%%score [ 1 2 3 4 ]
L:1/8
Q:1/4=72
M:2/4
K:Bb
V:1 treble nm="Soprano"
V:2 treble nm="Alto"
V:3 treble-8 nm="Tenor"
V:4 bass nm="Bass"
V:1
"^Ikke for langsomt"!p! (F/B/) | d d/ d/ e c | d2 z (B/d/) | f f e e | d2 c/ z/ (F/B/) | %5
w: Det _|gjeng no so att og|fram som _|fyrr det he- ver|gjen- get; det _|
 d d/ d/ =e e/ e/ | f2 z!f! d | c3/2 B/ (AB/) A/ | G2 F z | z4 | z!p! d/ d/ d/ z/ z | z4 | %12
w: heng mil- lom Æ- ra og|Skam som|fyrr det he- * ver|hen- get||gan- ga fort||
 z!pp! e/ e/ e2 | c2 A2 | F4- | F4- | !fermata!F2 z F/ B/ | d d/ d/ e c | (fe d/) z/ (g/e/) | %19
w: no- kot stort|no- kot|stort.|_|* Men so|tidt no- kot stort er|naatt, _ _ so _|
 d d/ d/ c c | B2 z |] %21
w: kjem det stödt no- kot|smaatt.|
V:2
!p! F | B B/ B/ B A | B2 z F | F A G F | (F>G) A/ z/ F | F F/ F/ G G/ G/ | F2 z!f! F | %7
w: Det|gjeng no so att og|fram som|fyrr det he- ver|gjen- * get; det|heng mil- lom Æ- ra og|Skam som|
 F3/2 F/ F F | =E2 C z | z4 | z!p! B/ B/ B/ z/ z | z4 | z!pp! A/ A/ A2 | E2 E2 | E4- | E4- | %16
w: fyrr det he- ver|hen- get||gan- ga fort||no- kot stort|no- kot|stort.|_|
 !fermata!E2 z D | F B/ B/ B A | .B.A .B/ z/ G | B B/ B/ A A | F2 z |] %21
w: * men|tidt no- kot stort er|naatt, _ _ so|kjem det stödt no- kot|smaatt.|
V:3
!p! d | f f/ f/ g e | d2 z d | c c B c | (d>=e) f/ z/ F | B d/ d/ c c/ c/ | c2 z!f! B | %7
w: Det|gjeng no so att og|fram som|fyrr det he- ver|gjen- * get; det|heng mil- lom Æ- ra og|Skam som|
 A3/2 B/ c d | B2 A z | z4 | z!p! f/ f/ f/ z/ z | z4 | z!pp! c/ c/ c2 | A2 c2 | A4- | A4- | %16
w: fyrr det he- ver|hen- get||gan- ga fort||no- kot stort|no- kot|stort.|_|
 !fermata!A2 z B | B f/ f/ g f | f2- f/ z/ (e/c/) | B d/ B/ f e | d2 z |] %21
w: * men|tidt no- kot stort er|naatt, _ so _|kjem det stödt no- kot|smaatt.|
V:4
!p! B, | B, B,/ B,/ E, F, | B,,2 z B, | A, F, G, A, | B,2 F,/ z/ D, | B,, B,/ B,/ B, B,/ B,/ | %6
w: Det|gjeng no so att og|fram som|fyrr det he- ver|gjen- get; det|heng mil- lom Æ- ra og|
 A,2 z!f! B, | F,3/2 D,/ C, B,, | C,2 F, z/!p! F,/ | F, F,/ F,/ (F,/G,/) A,/ F,/ | %10
w: Skam som|fyrr det he- ver|hen- get Dei|tru, det skal gan- * ga so|
 B, B,/ B,/ B,/ z/ z/ C,/ | C,3/2 C,/ (C,/D,/) (=E,/C,/) | F,!pp! F,/ F,/ F,2 | F,2 F,2 | F,4 | %15
w: fort gan- ga fort alt|fram til no- * kot _|sort no- kot stort|no- ko|stort|
 C,2 A,,2 | !fermata!F,,2 z B,, | B,, B,/ B,/ E, F, | (D,C, B,,/) z/ E, | F, F,/ F,/ F, F, | %20
w: no- kot|stort men|tidt no- kot stort er|naatt, _ _ so|kjem det stödt no- kot|
 B,2 z |] %21
w: smaatt.|

